svgs/sharp-regular/cars.svg

<svg xmlns="http://www.w3.org/2000/svg" viewBox="0 0 640 512"><!--! Font Awesome Pro 6.6.0 by @fontawesome - https://fontawesome.com License - https://fontawesome.com/license (Commercial License) Copyright 2024 Fonticons, Inc. --><path d="M87.1 0L104 0 312 0l16.9 0 5.7 15.9 40 112c0 0 0 0 0 .1l-51 0L295.1 48 120.9 48 92.3 128l231.3 0L312 128l-22.8 0-7.4 21.6L272.6 176 48 176l0 80 144 0 0 16 0 32L48 304l0 64L0 368l0-64 0-32 0-16 0-80 0-48 41.4 0c0 0 0 0 0-.1l40-112L87.1 0zM112 192a24 24 0 1 1 0 48 24 24 0 1 1 0-48zm193.4-16.1l5.7-15.9 16.9 0 208 0 16.9 0 5.7 15.9L592.9 272l47.1 0 0 48 0 80 0 16 0 32 0 64-48 0 0-64-320 0 0 64-48 0 0-64 0-32 0-16 0-80 0-48 47.1 0 34.3-96.1zM576.6 320c-.4 0-.7 0-1.1 0l-286.9 0c-.4 0-.7 0-1.1 0L272 320l0 80 320 0 0-80-15.4 0zM344.9 208l-22.9 64 219.9 0-22.9-64-174.2 0zM336 336a24 24 0 1 1 0 48 24 24 0 1 1 0-48zm168 24a24 24 0 1 1 48 0 24 24 0 1 1 -48 0z"/></svg>

<svg xmlns="http://www.w3.org/2000/svg" viewBox="0 0 640 512"><!--! Font Awesome Pro 6.4.0 by @fontawesome - https://fontawesome.com License - https://fontawesome.com/license (Commercial License) Copyright 2023 Fonticons, Inc. --><path d="M87.1 0H104 312h16.9l5.7 15.9 40 112 0 .1h-51L295.1 48H120.9L92.3 128H323.7L312 128l-22.8 0-7.4 21.6L272.6 176H48v80H192l0 16 0 32H48v64H0V304 272 256 176 128H41.4l0-.1 40-112L87.1 0zM112 192a24 24 0 1 1 0 48 24 24 0 1 1 0-48zm193.4-16.1l5.7-15.9H328 536h16.9l5.7 15.9L592.9 272H640v48 80 16 32 64H592V448H272v64H224V448 416 400 320 272h47.1l34.3-96.1zM576.6 320c-.4 0-.7 0-1.1 0H288.6c-.4 0-.7 0-1.1 0H272v80H592V320H576.6zM344.9 208l-22.9 64H541.9l-22.9-64H344.9zM336 336a24 24 0 1 1 0 48 24 24 0 1 1 0-48zm168 24a24 24 0 1 1 48 0 24 24 0 1 1 -48 0z"/></svg>
